ui/public/images/icons/errorAlert.svg

<?xml version="1.0" encoding="UTF-8"?>
<svg viewBox="0 0 39 39" xmlns="http://www.w3.org/2000/svg">
<circle cx="19.5" cy="19.5" r="19.5" fill="#F49979"/>
<path d="m19.544 9.3437c0.5235-5.6e-4 1.0454 0.05726 1.5561 0.17236h-3.0976c0.5058-0.11439 1.0228-0.1722 1.5415-0.17236z" fill="#fff"/>
<path d="m26.578 19.5c-1.0492 0-2.0727-0.3249-2.9297-0.9303-0.8571-0.6053-1.5055-1.4612-1.8563-2.4501-0.3507-0.9889-0.3865-2.0621-0.1025-3.0722 0.2841-1.01 0.874-1.9073 1.6888-2.5684l2.4185 6.8184 0.227 0.6401 0.5542 1.5625z" fill="#fff"/>
<path d="m26.578 9.3437c-1.0043 0-1.9861 0.29782-2.8212 0.85578-0.8351 0.558-1.486 1.3511-1.8703 2.279-0.3844 0.9279-0.485 1.949-0.289 2.934 0.1959 0.9851 0.6796 1.8899 1.3898 2.6001 0.7101 0.7102 1.615 1.1938 2.6 1.3898 0.9851 0.1959 2.0061 0.0954 2.934-0.289 0.928-0.3843 1.721-1.0352 2.279-1.8703s0.8559-1.8169 0.8559-2.8213c0.0031-0.6677-0.126-1.3295-0.3801-1.947-0.2541-0.6176-0.628-1.1787-1.1002-1.6508-0.4722-0.4722-1.0332-0.84616-1.6508-1.1002-0.6175-0.25407-1.2793-0.38324-1.9471-0.38005zm0.7813 8.5938h-1.3355l-0.227-0.6402v-0.9223h1.5625v1.5625zm0-2.7344h-1.5625v-4.2969h1.5625v4.2969z" fill="#fff"/>
<path d="m21.109 9.3437c-1e-4 0.0576-0.0033 0.11514-0.0098 0.17237h-3.1055c-0.0237-0.21131-0.0041-0.42523 0.0578-0.62868 0.0618-0.20344 0.1645-0.39213 0.3018-0.55451 0.1372-0.16238 0.3062-0.29503 0.4965-0.38983 0.1904-0.0948 0.3981-0.14976 0.6104-0.1615 0.2123-0.01175 0.4247 0.01996 0.6244 0.09318 0.1996 0.07323 0.3822 0.18643 0.5365 0.33267 0.1544 0.14624 0.2773 0.32245 0.3611 0.51784 0.0839 0.19538 0.1271 0.40583 0.1268 0.61846z" fill="#fff"/>
<path d="m21.891 28.875c0 0.6216-0.2469 1.2177-0.6864 1.6573-0.4396 0.4395-1.0357 0.6864-1.6573 0.6864s-1.2178-0.2469-1.6573-0.6864c-0.4395-0.4396-0.6865-1.0357-0.6865-1.6573h4.6875z" fill="#fff"/>
<path d="m26.024 17.938h-0.227v-0.6402l0.227 0.6402z" fill="#fff"/>
<path d="m21.109 27.312h-8.2032c-0.1036 0-0.2029 0.0412-0.2762 0.1144-0.0732 0.0733-0.1144 0.1726-0.1144 0.2762s0.0412 0.203 0.1144 0.2762c0.0733 0.0733 0.1726 0.1145 0.2762 0.1145h8.2032c0.1036 0 0.2029-0.0412 0.2762-0.1145 0.0732-0.0732 0.1144-0.1726 0.1144-0.2762s-0.0412-0.2029-0.1144-0.2762c-0.0733-0.0732-0.1726-0.1144-0.2762-0.1144z" fill="#fff"/>
<path d="m23.062 27.312h-0.7813c-0.1036 0-0.2029 0.0412-0.2762 0.1144-0.0732 0.0733-0.1144 0.1726-0.1144 0.2762s0.0412 0.203 0.1144 0.2762c0.0733 0.0733 0.1726 0.1145 0.2762 0.1145h0.7813c0.1036 0 0.203-0.0412 0.2762-0.1145 0.0733-0.0732 0.1144-0.1726 0.1144-0.2762s-0.0411-0.2029-0.1144-0.2762c-0.0732-0.0732-0.1726-0.1144-0.2762-0.1144z" fill="#fff"/>
<path d="m25.797 15.594h1.5625c0.1036 0 0.2029-0.0412 0.2762-0.1145 0.0732-0.0732 0.1144-0.1726 0.1144-0.2762v-4.2969c0-0.1036-0.0412-0.2029-0.1144-0.2762-0.0733-0.0732-0.1726-0.1144-0.2762-0.1144h-1.5625c-0.1036 0-0.203 0.0412-0.2762 0.1144-0.0733 0.0733-0.1145 0.1726-0.1145 0.2762v4.2969c0 0.1036 0.0412 0.203 0.1145 0.2762 0.0732 0.0733 0.1726 0.1145 0.2762 0.1145zm0.3906-4.2969h0.7813v3.5156h-0.7813v-3.5156z" fill="#fff"/>
<path d="m25.797 18.328h1.5625c0.1036 0 0.2029-0.0411 0.2762-0.1144 0.0732-0.0732 0.1144-0.1726 0.1144-0.2762v-1.5625c0-0.1036-0.0412-0.203-0.1144-0.2762-0.0733-0.0733-0.1726-0.1144-0.2762-0.1144h-1.5625c-0.1036 0-0.203 0.0411-0.2762 0.1144-0.0733 0.0732-0.1145 0.1726-0.1145 0.2762v1.5625c0 0.1036 0.0412 0.203 0.1145 0.2762 0.0732 0.0733 0.1726 0.1144 0.2762 0.1144zm0.3906-1.5625h0.7813v0.7813h-0.7813v-0.7813z" fill="#fff"/>
<path d="m32.047 14.422c7e-4 -1.0095-0.2783-1.9994-0.8059-2.86-0.5276-0.8605-1.2832-1.5582-2.1831-2.0156s-1.9089-0.65659-2.915-0.57557c-1.0062 0.08103-1.9703 0.43914-2.7854 1.0346-0.5814-0.34846-1.2081-0.61513-1.8623-0.79251-0.0331-0.49445-0.2529-0.95784-0.6149-1.2962-0.362-0.33839-0.8392-0.52646-1.3347-0.52609-0.4956 3.7e-4 -0.9725 0.18916-1.334 0.52809s-0.5806 0.80265-0.6129 1.2972c-3.1504 0.86568-5.4736 3.7778-5.4736 7.2266v8.9717c0 0.1464-0.0411 0.2898-0.1187 0.414l-0.6543 1.0469c-0.1479 0.2365-0.2299 0.5082-0.2373 0.7871-0.0074 0.2788 0.06 0.5546 0.1952 0.7986s0.3333 0.4473 0.5736 0.5888c0.2404 0.1416 0.5143 0.2162 0.7932 0.2161h4.1641c0.0939 0.6507 0.4191 1.2459 0.9161 1.6763s1.1325 0.6673 1.7899 0.6673c0.6575 0 1.293-0.2369 1.79-0.6673 0.4969-0.4304 0.8222-1.0256 0.9161-1.6763h4.1641c0.2789 1e-4 0.5528-0.0745 0.7931-0.2161 0.2404-0.1415 0.4385-0.3448 0.5737-0.5888s0.2026-0.5198 0.1952-0.7986c-0.0074-0.2789-0.0894-0.5506-0.2373-0.7871l-0.6543-1.0469c-0.0776-0.1242-0.1187-0.2676-0.1187-0.414v-5.5376c1.3786-0.1004 2.6683-0.7184 3.6102-1.7301s1.4663-2.3423 1.4679-3.7245zm-12.5-6.25c0.2578 3.6e-4 0.5084 0.08557 0.7129 0.24248 0.2046 0.1569 0.3518 0.37678 0.419 0.62568-0.3749-0.05768-0.7536-0.08673-1.1328-0.08691h-0.0025c-0.3778-7e-5 -0.755 0.02899-1.1284 0.08691 0.0672-0.2489 0.2144-0.46878 0.419-0.62568 0.2045-0.15691 0.455-0.24212 0.7128-0.24248zm0 22.656c-0.45-5e-4 -0.8862-0.1562-1.2349-0.4409-0.3486-0.2846-0.5885-0.6807-0.6791-1.1216h3.8281c-0.0906 0.4409-0.3305 0.837-0.6792 1.1216-0.3486 0.2847-0.7848 0.4404-1.2349 0.4409zm7.5328-3.539c0.0739 0.1182 0.1148 0.2541 0.1184 0.3935 0.0037 0.1395-0.03 0.2773-0.0977 0.3993-0.0676 0.122-0.1666 0.2236-0.2868 0.2944s-0.2571 0.1081-0.3965 0.1081h-13.74c-0.1394 0-0.2764-0.0373-0.3965-0.1081-0.1202-0.0708-0.2193-0.1724-0.2869-0.2944s-0.1013-0.2598-0.0977-0.3993c0.0037-0.1394 0.0446-0.2753 0.1185-0.3935l0.6543-1.0469c0.1556-0.2482 0.238-0.5352 0.2378-0.8281v-8.9717c0-3.6968 2.9776-6.7061 6.6372-6.708h0.0025c1.111-0.00141 2.2045 0.27703 3.1796 0.80953-0.7452 0.7395-1.2618 1.6779-1.4879 2.7031-0.2261 1.0253-0.1521 2.0939 0.213 3.0782 0.3651 0.9844 1.006 1.8427 1.846 2.4725 0.84 0.6297 1.8436 1.0042 2.8909 1.0788v5.5376c-3e-4 0.2929 0.0822 0.5799 0.2378 0.8281l0.6543 1.0469zm-0.5015-8.1797c-0.9271 0-1.8334-0.2749-2.6042-0.79-0.7709-0.5151-1.3717-1.2472-1.7265-2.1037s-0.4476-1.799-0.2667-2.7083c0.1808-0.9093 0.6273-1.7445 1.2828-2.4001 0.6556-0.6556 1.4908-1.102 2.4001-1.2829 0.9093-0.18087 1.8518-0.08804 2.7083 0.26676s1.5886 0.9556 2.1037 1.7264c0.5151 0.7709 0.79 1.6772 0.79 2.6043-0.0015 1.2427-0.4958 2.4341-1.3746 3.3129-0.8787 0.8787-2.0702 1.3731-3.3129 1.3746z" fill="#fff"/>
</svg>

<svg width="39" height="39" viewBox="0 0 39 39" fill="none" xmlns="http://www.w3.org/2000/svg">
<circle cx="19.5" cy="19.5" r="19.5" fill="#F49979"/>
<path d="M19.5435 9.34371C20.067 9.34315 20.5889 9.40097 21.0996 9.51607H18.002C18.5078 9.40168 19.0248 9.34387 19.5435 9.34371Z" fill="white"/>
<path d="M26.5781 19.5C25.5289 19.5 24.5054 19.1751 23.6484 18.5697C22.7913 17.9644 22.1429 17.1085 21.7921 16.1196C21.4414 15.1307 21.4056 14.0575 21.6896 13.0474C21.9737 12.0374 22.5636 11.1401 23.3784 10.479L25.7969 17.2974L26.0239 17.9375L26.5781 19.5Z" fill="white"/>
<path d="M26.5781 9.34372C25.5738 9.34372 24.592 9.64154 23.7569 10.1995C22.9218 10.7575 22.2709 11.5506 21.8866 12.4785C21.5022 13.4064 21.4016 14.4275 21.5976 15.4125C21.7935 16.3976 22.2772 17.3024 22.9874 18.0126C23.6975 18.7228 24.6024 19.2064 25.5874 19.4024C26.5725 19.5983 27.5935 19.4978 28.5214 19.1134C29.4494 18.7291 30.2424 18.0782 30.8004 17.2431C31.3584 16.408 31.6563 15.4262 31.6563 14.4218C31.6594 13.7541 31.5303 13.0923 31.2762 12.4748C31.0221 11.8572 30.6482 11.2961 30.176 10.824C29.7038 10.3518 29.1428 9.97784 28.5252 9.72377C27.9077 9.4697 27.2459 9.34053 26.5781 9.34372ZM27.3594 17.9375H26.0239L25.7969 17.2973V16.375H27.3594V17.9375ZM27.3594 15.2031H25.7969V10.9062H27.3594V15.2031Z" fill="white"/>
<path d="M21.1094 9.34373C21.1093 9.40133 21.1061 9.45887 21.0996 9.5161H17.9941C17.9704 9.30479 17.99 9.09087 18.0519 8.88742C18.1137 8.68398 18.2164 8.49529 18.3537 8.33291C18.4909 8.17053 18.6599 8.03788 18.8502 7.94308C19.0406 7.84828 19.2483 7.79332 19.4606 7.78158C19.6729 7.76983 19.8853 7.80154 20.085 7.87476C20.2846 7.94799 20.4672 8.06119 20.6215 8.20743C20.7759 8.35367 20.8988 8.52988 20.9826 8.72527C21.0665 8.92065 21.1097 9.1311 21.1094 9.34373Z" fill="white"/>
<path d="M21.8906 28.875C21.8906 29.4966 21.6437 30.0927 21.2042 30.5323C20.7646 30.9718 20.1685 31.2187 19.5469 31.2187C18.9253 31.2187 18.3291 30.9718 17.8896 30.5323C17.4501 30.0927 17.2031 29.4966 17.2031 28.875H21.8906Z" fill="white"/>
<path d="M26.0239 17.9375H25.7969V17.2973L26.0239 17.9375Z" fill="white"/>
<path d="M21.1094 27.3125H12.9062C12.8026 27.3125 12.7033 27.3537 12.63 27.4269C12.5568 27.5002 12.5156 27.5995 12.5156 27.7031C12.5156 27.8067 12.5568 27.9061 12.63 27.9793C12.7033 28.0526 12.8026 28.0938 12.9062 28.0938H21.1094C21.213 28.0938 21.3123 28.0526 21.3856 27.9793C21.4588 27.9061 21.5 27.8067 21.5 27.7031C21.5 27.5995 21.4588 27.5002 21.3856 27.4269C21.3123 27.3537 21.213 27.3125 21.1094 27.3125Z" fill="white"/>
<path d="M23.0625 27.3125H22.2812C22.1776 27.3125 22.0783 27.3537 22.005 27.4269C21.9318 27.5002 21.8906 27.5995 21.8906 27.7031C21.8906 27.8067 21.9318 27.9061 22.005 27.9793C22.0783 28.0526 22.1776 28.0938 22.2812 28.0938H23.0625C23.1661 28.0938 23.2655 28.0526 23.3387 27.9793C23.412 27.9061 23.4531 27.8067 23.4531 27.7031C23.4531 27.5995 23.412 27.5002 23.3387 27.4269C23.2655 27.3537 23.1661 27.3125 23.0625 27.3125Z" fill="white"/>
<path d="M25.7969 15.5938H27.3594C27.463 15.5938 27.5623 15.5526 27.6356 15.4793C27.7088 15.4061 27.75 15.3067 27.75 15.2031V10.9062C27.75 10.8026 27.7088 10.7033 27.6356 10.63C27.5623 10.5568 27.463 10.5156 27.3594 10.5156H25.7969C25.6933 10.5156 25.5939 10.5568 25.5207 10.63C25.4474 10.7033 25.4062 10.8026 25.4062 10.9062V15.2031C25.4062 15.3067 25.4474 15.4061 25.5207 15.4793C25.5939 15.5526 25.6933 15.5938 25.7969 15.5938ZM26.1875 11.2969H26.9688V14.8125H26.1875V11.2969Z" fill="white"/>
<path d="M25.7969 18.3281H27.3594C27.463 18.3281 27.5623 18.287 27.6356 18.2137C27.7088 18.1405 27.75 18.0411 27.75 17.9375V16.375C27.75 16.2714 27.7088 16.172 27.6356 16.0988C27.5623 16.0255 27.463 15.9844 27.3594 15.9844H25.7969C25.6933 15.9844 25.5939 16.0255 25.5207 16.0988C25.4474 16.172 25.4062 16.2714 25.4062 16.375V17.9375C25.4062 18.0411 25.4474 18.1405 25.5207 18.2137C25.5939 18.287 25.6933 18.3281 25.7969 18.3281ZM26.1875 16.7656H26.9688V17.5469H26.1875V16.7656Z" fill="white"/>
<path d="M32.0469 14.4219C32.0476 13.4124 31.7686 12.4225 31.241 11.5619C30.7134 10.7014 29.9578 10.0037 29.0579 9.54632C28.158 9.08894 27.149 8.88973 26.1429 8.97075C25.1367 9.05178 24.1726 9.40989 23.3575 10.0054C22.7761 9.65694 22.1494 9.39027 21.4952 9.21289C21.4621 8.71844 21.2423 8.25505 20.8803 7.91667C20.5183 7.57828 20.0411 7.39021 19.5456 7.39058C19.05 7.39095 18.5731 7.57974 18.2116 7.91867C17.8501 8.2576 17.631 8.72132 17.5987 9.21582C14.4483 10.0815 12.1251 12.9936 12.1251 16.4424V25.4141C12.1251 25.5605 12.084 25.7039 12.0064 25.8281L11.3521 26.875C11.2042 27.1115 11.1222 27.3832 11.1148 27.6621C11.1074 27.9409 11.1748 28.2167 11.31 28.4607C11.4452 28.7047 11.6433 28.908 11.8836 29.0495C12.124 29.1911 12.3979 29.2657 12.6768 29.2656H16.8409C16.9348 29.9163 17.26 30.5115 17.757 30.9419C18.254 31.3723 18.8895 31.6092 19.5469 31.6092C20.2044 31.6092 20.8399 31.3723 21.3369 30.9419C21.8338 30.5115 22.1591 29.9163 22.253 29.2656H26.4171C26.696 29.2657 26.9699 29.1911 27.2102 29.0495C27.4506 28.908 27.6487 28.7047 27.7839 28.4607C27.9191 28.2167 27.9865 27.9409 27.9791 27.6621C27.9717 27.3832 27.8897 27.1115 27.7418 26.875L27.0875 25.8281C27.0099 25.7039 26.9688 25.5605 26.9688 25.4141V19.8765C28.3474 19.7761 29.6371 19.1581 30.579 18.1464C31.5209 17.1347 32.0453 15.8041 32.0469 14.4219ZM19.5469 8.17187C19.8047 8.17223 20.0553 8.25744 20.2598 8.41435C20.4644 8.57125 20.6116 8.79113 20.6788 9.04003C20.3039 8.98235 19.9252 8.9533 19.546 8.95312H19.5435C19.1657 8.95305 18.7885 8.98211 18.4151 9.04003C18.4823 8.79113 18.6295 8.57125 18.8341 8.41435C19.0386 8.25744 19.2891 8.17223 19.5469 8.17187ZM19.5469 30.8281C19.0969 30.8276 18.6607 30.6719 18.312 30.3872C17.9634 30.1026 17.7235 29.7065 17.6329 29.2656H21.461C21.3704 29.7065 21.1305 30.1026 20.7818 30.3872C20.4332 30.6719 19.997 30.8276 19.5469 30.8281ZM27.0797 27.2891C27.1536 27.4073 27.1945 27.5432 27.1981 27.6826C27.2018 27.8221 27.1681 27.9599 27.1004 28.0819C27.0328 28.2039 26.9338 28.3055 26.8136 28.3763C26.6934 28.4471 26.5565 28.4844 26.4171 28.4844H12.6768C12.5374 28.4844 12.4004 28.4471 12.2803 28.3763C12.1601 28.3055 12.061 28.2039 11.9934 28.0819C11.9258 27.9599 11.8921 27.8221 11.8957 27.6826C11.8994 27.5432 11.9403 27.4073 12.0142 27.2891L12.6685 26.2422C12.8241 25.994 12.9065 25.707 12.9063 25.4141V16.4424C12.9063 12.7456 15.8839 9.73632 19.5435 9.73437H19.546C20.657 9.73296 21.7505 10.0114 22.7256 10.5439C21.9804 11.2834 21.4638 12.2218 21.2377 13.247C21.0116 14.2723 21.0856 15.3409 21.4507 16.3252C21.8158 17.3096 22.4567 18.1679 23.2967 18.7977C24.1367 19.4274 25.1403 19.8019 26.1876 19.8765V25.4141C26.1873 25.707 26.2698 25.994 26.4254 26.2422L27.0797 27.2891ZM26.5782 19.1094C25.6511 19.1094 24.7448 18.8345 23.974 18.3194C23.2031 17.8043 22.6023 17.0722 22.2475 16.2157C21.8927 15.3592 21.7999 14.4167 21.9808 13.5074C22.1616 12.5981 22.6081 11.7629 23.2636 11.1073C23.9192 10.4517 24.7544 10.0053 25.6637 9.82444C26.573 9.64357 27.5155 9.7364 28.372 10.0912C29.2285 10.446 29.9606 11.0468 30.4757 11.8176C30.9908 12.5885 31.2657 13.4948 31.2657 14.4219C31.2642 15.6646 30.7699 16.856 29.8911 17.7348C29.0124 18.6135 27.8209 19.1079 26.5782 19.1094Z" fill="white"/>
</svg>
